X:225
T:Reel 225
M:4/4
K:Amaj
L:1/8
CEDB, A,2 (3F,G,E, |A,CCA, ECDB,|||1 (3FGA EC D2B,D|ECDB, CA,A,2|GE (3EEE GEDB,|EAAG EAA2|GEE2 B2BA|GEDB, CA,A,2|GEE2 GEEF|GEBA GEB2|cABG AGEA|GEDB, B,A,A,2|
